X:15
T:Cat in the Kitchen
C:Bob McQuillen 1975
M:6/8
K:Bm
F|"Bm"B2c dcB|"Em"e2f gfe|"Bm"fbb bag|"F#7"fgf edc|
"Bm"B2c dcB|"Em"e2f gfe|"F#7"fgf edc|"Bm"dBB
B::
AG|"Bm"F2B ABc|"D"d2d "A"ede|"Bm"fBB Bcd|"A"cAA BAG|
"Bm"F2B "A"ABc|"G"dcd "Em"ede|"F#7"fed cBA|"Bm"FBB B:|
